src/img/js.svg

<svg width="38" height="38" viewBox="0 0 38 38" fill="none" xmlns="http://www.w3.org/2000/svg">
<path fill-rule="evenodd" clip-rule="evenodd" d="M33.3488 3.1665H4.65088C3.83108 3.1665 3.1665 3.83108 3.1665 4.65088V33.3488C3.1665 34.1686 3.83108 34.8332 4.65088 34.8332H33.3488C34.1686 34.8332 34.8332 34.1686 34.8332 33.3488V4.65088C34.8332 3.83108 34.1686 3.1665 33.3488 3.1665ZM26.0489 29.4654C24.6724 29.4654 23.2959 28.9667 22.4402 28.4679L21.7706 31.4604C22.589 31.9591 24.226 32.4579 25.8629 32.4579C29.8436 32.4579 31.6665 30.172 31.6665 27.4705C31.6665 25.1846 30.476 23.6883 27.9462 22.6493C26.0489 21.8596 25.2676 21.4024 25.2676 20.3634C25.2676 19.5737 25.9373 18.8256 27.351 18.8256C28.7275 18.8256 29.7692 19.2828 30.3272 19.5737L31.0713 16.6644C30.2156 16.2072 29.0251 15.8332 27.3882 15.8332C24.0027 15.8332 21.9194 17.9113 21.9194 20.6128C21.9194 22.9818 23.5191 24.478 25.9001 25.4339C27.6486 26.0989 28.3183 26.6808 28.3183 27.6783C28.3183 28.7589 27.537 29.4654 26.0489 29.4654ZM19.4146 15.8335H16.1511L16.1886 26.1712C16.1886 28.6607 15.3259 29.378 13.938 29.378C13.3003 29.378 12.7001 29.2514 12.25 29.0826L11.8748 32.0784C12.5125 32.3316 13.4878 32.4582 14.2756 32.4582C17.4265 32.4582 19.4146 30.8126 19.4146 26.1712V15.8335Z" fill="#272727"/>
</svg>

<svg width="38" height="38" viewBox="0 0 38 38" fill="none" xmlns="http://www.w3.org/2000/svg"><path fill-rule="evenodd" clip-rule="evenodd" d="M33.349 3.167H4.65c-.82 0-1.484.664-1.484 1.484v28.698c0 .82.664 1.484 1.484 1.484h28.698c.82 0 1.484-.664 1.484-1.484V4.65c0-.82-.664-1.484-1.484-1.484zm-7.3 26.298c-1.377 0-2.753-.498-3.609-.997l-.67 2.992c.819.5 2.456.998 4.093.998 3.98 0 5.803-2.286 5.803-4.987 0-2.286-1.19-3.783-3.72-4.822-1.897-.79-2.678-1.247-2.678-2.286 0-.79.67-1.537 2.083-1.537a6.41 6.41 0 012.976.748l.744-2.91c-.855-.457-2.046-.83-3.683-.83-3.385 0-5.469 2.077-5.469 4.779 0 2.369 1.6 3.865 3.981 4.82 1.749.666 2.418 1.248 2.418 2.245 0 1.08-.781 1.787-2.27 1.787zm-6.634-13.631H16.15l.038 10.337c0 2.49-.863 3.207-2.251 3.207a4.943 4.943 0 01-1.688-.295l-.375 2.995c.637.254 1.613.38 2.4.38 3.152 0 5.14-1.645 5.14-6.287V15.834z" fill="#272727"/></svg>
